public/img/icons/emojiSad.svg

<?xml version="1.0" encoding="UTF-8" standalone="no"?><!DOCTYPE svg PUBLIC "-//W3C//DTD SVG 1.1//EN" "http://www.w3.org/Graphics/SVG/1.1/DTD/svg11.dtd"><svg width="100%" height="100%" viewBox="0 0 78 78" version="1.1" xmlns="http://www.w3.org/2000/svg" xmlns:xlink="http://www.w3.org/1999/xlink" xml:space="preserve" xmlns:serif="http://www.serif.com/" style="fill-rule:evenodd;clip-rule:evenodd;stroke-linejoin:round;stroke-miterlimit:1.41421;"><ellipse cx="39.046" cy="38.944" rx="31.915" ry="32.212" style="fill:#ffd4d0;"/><path d="M26.237,42.852c-1.623,0.333 -2.669,1.918 -2.336,3.541c0.333,1.623 1.917,2.674 3.542,2.336c7.225,-1.486 14.537,2.374 17.376,9.171c0.48,1.151 1.595,1.845 2.77,1.845c0.386,0 0.776,-0.075 1.155,-0.232c1.528,-0.639 2.25,-2.396 1.611,-3.925c-3.941,-9.439 -14.082,-14.799 -24.118,-12.736Zm12.763,-42.852c-21.539,0 -39,17.461 -39,39c0,21.539 17.461,39 39,39c21.539,0 39,-17.461 39,-39c0,-21.539 -17.461,-39 -39,-39Zm0,70.5c-17.396,0 -31.5,-14.105 -31.5,-31.5c0,-17.396 14.104,-31.5 31.5,-31.5c17.396,0 31.5,14.104 31.5,31.5c0,17.395 -14.104,31.5 -31.5,31.5Zm6.326,-52.466c-2.453,0.388 -3.92,4.019 -3.27,8.109c0.646,4.092 3.162,7.093 5.615,6.706c2.455,-0.391 3.922,-4.022 3.273,-8.113c-0.647,-4.09 -3.165,-7.09 -5.618,-6.702Zm-14.998,14.816c2.453,0.387 4.969,-2.614 5.615,-6.706c0.65,-4.091 -0.816,-7.722 -3.27,-8.109c-2.454,-0.387 -4.971,2.612 -5.619,6.702c-0.648,4.09 0.819,7.722 3.274,8.113Z" style="fill:#333f4f;fill-rule:nonzero;"/></svg>

<?xml version="1.0" ?><!DOCTYPE svg  PUBLIC '-//W3C//DTD SVG 1.1//EN'  'http://www.w3.org/Graphics/SVG/1.1/DTD/svg11.dtd'><svg enable-background="new 0 0 78 78" height="78px" id="Layer_1" version="1.1" viewBox="0 0 78 78" width="78px" xml:space="preserve" xmlns="http://www.w3.org/2000/svg" xmlns:xlink="http://www.w3.org/1999/xlink"><path d="M26.237,42.852c-1.623,0.333-2.669,1.918-2.336,3.541s1.917,2.674,3.542,2.336  c7.225-1.486,14.537,2.374,17.376,9.171c0.48,1.151,1.595,1.845,2.77,1.845c0.386,0,0.776-0.075,1.155-0.232  c1.528-0.639,2.25-2.396,1.611-3.925C46.414,46.149,36.273,40.789,26.237,42.852z M39,0C17.461,0,0,17.461,0,39s17.461,39,39,39  s39-17.461,39-39S60.539,0,39,0z M39,70.5C21.604,70.5,7.5,56.395,7.5,39C7.5,21.604,21.604,7.5,39,7.5S70.5,21.604,70.5,39  C70.5,56.395,56.396,70.5,39,70.5z M45.326,18.034c-2.453,0.388-3.92,4.019-3.27,8.109c0.646,4.092,3.162,7.093,5.615,6.706  c2.455-0.391,3.922-4.022,3.273-8.113C50.297,20.646,47.779,17.646,45.326,18.034z M30.328,32.85  c2.453,0.387,4.969-2.614,5.615-6.706c0.65-4.091-0.816-7.722-3.27-8.109s-4.971,2.612-5.619,6.702  C26.406,28.827,27.873,32.459,30.328,32.85z" fill="#333F4F"/></svg>
